X: 24864
T: Maghera Mountain
R: reel
M: 4/4
K: Edorian
|:GA|B2 AF GEED|BE E2 BE E2|B2 AF GEEG|FDAD BDAD|
B2 AF GEED|BE E2 BE E2|DEFA dAFA|GBFG E2:|
|:DEFA d2 cd|e3f edcd|cAeA fAeA|cAeA fAeA|
G2 ED E3 G|FDDF A2 GF|GBec dBAB|GBFG E2z2:|

